mermaid.svg

<svg viewBox="0 0 491 491" xmlns="http://www.w3.org/2000/svg" xml:space="preserve" style="fill-rule:evenodd;clip-rule:evenodd;stroke-linejoin:round;stroke-miterlimit:2"><path d="M407.48 111.18c-71.893-3.077-137.907 41.158-162.4 108.82-24.493-67.662-90.507-111.897-162.4-108.82-2.395 57.049 24.897 111.452 72.06 143.64 24.168 16.599 38.61 44.131 38.53 73.45v50.86H296.9v-50.86c-.084-29.317 14.355-56.85 38.52-73.45 47.176-32.176 74.472-86.587 72.06-143.64Z" style="fill:#fff;fill-rule:nonzero"/></svg>

<?xml version="1.0" encoding="UTF-8" standalone="no"?>
<!DOCTYPE svg PUBLIC "-//W3C//DTD SVG 1.1//EN" "http://www.w3.org/Graphics/SVG/1.1/DTD/svg11.dtd">
<svg width="100%" height="100%" viewBox="0 0 491 491" version="1.1" xmlns="http://www.w3.org/2000/svg" xmlns:xlink="http://www.w3.org/1999/xlink" xml:space="preserve" xmlns:serif="http://www.serif.com/" style="fill-rule:evenodd;clip-rule:evenodd;stroke-linejoin:round;stroke-miterlimit:2;">
    <!-- <path d="M490.16,84.61C490.16,37.912 452.248,0 405.55,0L84.61,0C37.912,0 0,37.912 0,84.61L0,405.55C0,452.248 37.912,490.16 84.61,490.16L405.55,490.16C452.248,490.16 490.16,452.248 490.16,405.55L490.16,84.61Z" style="fill:rgb(255,54,112);"/> -->
    <path d="M407.48,111.18C335.587,108.103 269.573,152.338 245.08,220C220.587,152.338 154.573,108.103 82.68,111.18C80.285,168.229 107.577,222.632 154.74,254.82C178.908,271.419 193.35,298.951 193.27,328.27L193.27,379.13L296.9,379.13L296.9,328.27C296.816,298.953 311.255,271.42 335.42,254.82C382.596,222.644 409.892,168.233 407.48,111.18Z" style="fill:white;fill-rule:nonzero;"/>
</svg>
